X: 33066
T: Priest In His Boots, The
R: jig
M: 6/8
K: Dmajor
|:fg|a2f gfe|fed B2A|a2f gfe|fef efg|
a2f gfe|fed B2A|d2f a2f|1 gfe dfg:|2 gfe dcd||
|:e2e e2e|efe dBA|B2d dBd|efe dBd|
e2e e2e|efe dBA|d2f a2f|1 gfe dcd:|2 gfe dfg||

